packages/ffe-icons/icons/filled/sm/nest_heat_link_e.svg

<svg xmlns="http://www.w3.org/2000/svg" height="20" viewBox="0 -960 960 960" width="20"><path d="M480.343-116.001q-75.112 0-141.48-28.42-66.369-28.42-116.182-78.21-49.814-49.791-78.247-116.087t-28.433-141.673q0-75.378 28.42-141.246 28.42-65.869 78.21-115.682 49.791-49.814 116.087-78.247t141.673-28.433q75.378 0 141.246 28.42 65.869 28.42 115.682 78.21 49.814 49.791 78.247 115.853t28.433 141.173q0 75.112-28.42 141.48-28.42 66.369-78.21 116.182-49.791 49.814-115.853 78.247t-141.173 28.433ZM480.23-168Q610-168 701-259.23q91-91.229 91-221Q792-610 700.77-701q-91.229-91-221-91Q350-792 259-700.77q-91 91.229-91 221Q168-350 259.23-259q91.229 91 221 91ZM480-356.001q-51.749 0-87.874-36.125-36.125-36.125-36.125-87.874 0-51.749 36.125-87.874 36.125-36.125 87.874-36.125 51.749 0 87.874 36.125 36.125 36.125 36.125 87.874 0 51.749-36.125 87.874-36.125 36.125-87.874 36.125Z"/></svg>

<svg xmlns="http://www.w3.org/2000/svg" height="20" viewBox="0 -960 960 960" width="20"><path d="M480.34-116q-75.11 0-141.48-28.42-66.37-28.42-116.18-78.21-49.81-49.79-78.25-116.09Q116-405.01 116-480.39q0-75.38 28.42-141.25t78.21-115.68q49.79-49.81 116.09-78.25Q405.01-844 480.39-844q75.38 0 141.25 28.42t115.68 78.21q49.81 49.79 78.25 115.85Q844-555.45 844-480.34q0 75.11-28.42 141.48-28.42 66.37-78.21 116.18-49.79 49.81-115.85 78.25Q555.45-116 480.34-116Zm-.11-52Q610-168 701-259.23t91-221Q792-610 700.77-701t-221-91Q350-792 259-700.77t-91 221Q168-350 259.23-259t221 91ZM480-356q-51.75 0-87.87-36.13Q356-428.25 356-480q0-51.75 36.13-87.87Q428.25-604 480-604q51.75 0 87.87 36.13Q604-531.75 604-480q0 51.75-36.13 87.87Q531.75-356 480-356Z"/></svg>
